assets/symbols/mulberry/is_this_enough.svg

<svg height="850.394" viewBox="0 0 850.394 850.394" width="850.394" xmlns="http://www.w3.org/2000/svg"><path d="m368 368.249h113.386v113.386h-113.386z" fill="none"/><path d="m466.88 256.44-43.28 410.89c0 45.43-62.91 82.25-140.51 82.25s-140.52-36.82-140.52-82.25l-43.36-411.55.22-.02c2.51 27.55 83.75 49.69 183.6 49.69 99.05 0 179.8-21.79 183.541-49.04z" fill="#faa41a"/><g fill="none"><g stroke="#231f20" stroke-width="21"><path d="m476.14 168.55c0 1.07-.109 2.12-.33 3.17-5.909 28.14-89.93 50.44-192.72 50.44-102.8 0-186.83-22.3-192.74-50.44-.22-1.05-.33-2.1-.33-3.17 0-29.61 86.44-53.62 193.07-53.62 106.62 0 193.05 24.01 193.05 53.62zm-9.44 85.89c0 .66-.05 1.32-.13 1.97-3.74 27.25-84.49 49.04-183.541 49.04-99.85 0-181.09-22.14-183.6-49.69-.04-.44-.06-.88-.06-1.32"/><path d="m90.02 168.55.33 3.17 8.86 84.06 43.36 411.55c0 45.43 62.92 82.25 140.52 82.25s140.51-36.82 140.51-82.25l43.28-410.89 8.93-84.72.33-3.17"/></g><path d="m0 0h850.394v850.394h-850.394z"/><path d="m661.987 280.694-120.333.167m47.326-59.923-48.247 60.142 48.327 60.128m72.927-60.514v461.306m0 0h-44.289m44.289-222.653h-44.289m44.289-122.904h-44.289m44.289 58.781h-44.289m44.289-121.125h-44.289m44.289 290.34h-44.289m44.289-53.438h-44.289m44.289 110.437h-44.289" stroke="#000" stroke-linecap="round" stroke-linejoin="round" stroke-width="14"/><path d="m711.543 285.42v20.188m-57.973-193.355c0-36.764 27.946-66.564 62.407-66.564 34.467 0 62.407 29.8 62.407 66.564 0 27.524-15.66 51.147-37.997 61.28 0 0-28.845 10.827-28.845 35.104v45.077" stroke="#000" stroke-linecap="round" stroke-linejoin="round" stroke-width="21"/></g></svg>

<svg xmlns="http://www.w3.org/2000/svg" width="850.394" height="850.394" viewBox="0 0 850.394 850.394" overflow="visible"><path fill="none" d="M368 368.249h113.386v113.386H368z"/><path d="M466.88 256.44L423.6 667.33c0 45.43-62.91 82.25-140.51 82.25s-140.52-36.82-140.52-82.25L99.21 255.78l.22-.02c2.51 27.55 83.75 49.69 183.6 49.69 99.05 0 179.8-21.79 183.541-49.04l.309.03z" fill="#faa41a"/><g fill="none" stroke="#231f20" stroke-width="21"><path d="M476.14 168.55c0 1.07-.109 2.12-.33 3.17-5.909 28.14-89.93 50.44-192.72 50.44-102.8 0-186.83-22.3-192.74-50.44-.22-1.05-.33-2.1-.33-3.17 0-29.61 86.44-53.62 193.07-53.62 106.62 0 193.05 24.01 193.05 53.62zM466.7 254.44c0 .66-.05 1.32-.13 1.97-3.74 27.25-84.49 49.04-183.541 49.04-99.85 0-181.09-22.14-183.6-49.69-.04-.44-.06-.88-.06-1.32"/><path d="M90.02 168.55l.33 3.17 8.86 84.06 43.36 411.55c0 45.43 62.92 82.25 140.52 82.25 77.6 0 140.51-36.82 140.51-82.25l43.28-410.89 8.93-84.72.33-3.17"/></g><path fill="none" d="M0 0h850.394v850.394H0z"/><path fill="none" stroke="#000" stroke-width="14" stroke-linecap="round" stroke-linejoin="round" d="M661.987 280.694l-120.333.167M588.98 220.938l-48.247 60.142 48.327 60.128M661.987 280.694V742M661.987 742h-44.289M661.987 519.347h-44.289M661.987 396.443h-44.289M661.987 455.224h-44.289M661.987 334.099h-44.289M661.987 624.439h-44.289M661.987 571.001h-44.289M661.987 681.438h-44.289"/><path d="M711.543 285.42v20.188M653.57 112.253c0-36.764 27.946-66.564 62.407-66.564 34.467 0 62.407 29.8 62.407 66.564 0 27.524-15.66 51.147-37.997 61.28 0 0-28.845 10.827-28.845 35.104v45.077" fill="none" stroke="#000" stroke-width="21" stroke-linecap="round" stroke-linejoin="round"/></svg>
